findly-builder/apps/searchassist/src/assets/images/Gray-tick-withBorder.svg

<svg width="36" height="36" viewBox="0 0 36 36" fill="none" xmlns="http://www.w3.org/2000/svg">
<rect x="0.5" y="0.5" width="35" height="35" rx="3.5" fill="#F8F9FA"/>
<path d="M24.5 12.793L15.5 21.793L11.8516 18.1484L11.5 17.793L10.793 18.5L11.1484 18.8516L15.5 23.207L25.207 13.5L24.5 12.793Z" fill="black"/>
<rect x="0.5" y="0.5" width="35" height="35" rx="3.5" stroke="#BDC1C6"/>
</svg>

<svg width="36" height="36" fill="none" xmlns="http://www.w3.org/2000/svg"><rect x=".5" y=".5" width="35" height="35" rx="3.5" fill="#F8F9FA"/><path d="m24.5 12.793-9 9-3.648-3.645-.352-.355-.707.707.355.352 4.352 4.355 9.707-9.707-.707-.707Z" fill="#000"/><rect x=".5" y=".5" width="35" height="35" rx="3.5" stroke="#BDC1C6"/></svg>
